dji-master/img/content/contacts/skype.svg

<svg width="14" height="15" viewBox="0 0 14 15" fill="none" xmlns="http://www.w3.org/2000/svg">
<path d="M10.4732 8.77679C10.4732 10.5893 8.72322 11.4286 7.04464 11.4286C5.03571 11.4286 3.35714 10.5357 3.35714 9.4375C3.35714 8.94643 3.63393 8.5 4.25893 8.5C5.21429 8.5 5.30357 9.875 6.95536 9.875C7.74107 9.875 8.25 9.52679 8.25 9.07143C8.25 8.5 7.75893 8.41071 6.96429 8.21429L5.66071 7.89286C4.35714 7.58036 3.35714 7.04464 3.35714 5.54464C3.35714 3.73214 5.15179 3.0625 6.69643 3.0625C8.38393 3.0625 10.0893 3.73214 10.0893 4.75893C10.0893 5.27679 9.74107 5.73214 9.16072 5.73214C8.29464 5.73214 8.26786 4.70536 6.86607 4.70536C6.08036 4.70536 5.58036 4.91964 5.58036 5.39286C5.58036 5.91071 6.08929 6.02679 6.76786 6.1875L7.69643 6.40179C8.96429 6.6875 10.4732 7.22321 10.4732 8.77679ZM13.7143 10.7143C13.7143 9.92857 13.4464 9.20536 13 8.625C13.0893 8.19643 13.1429 7.74107 13.1429 7.28571C13.1429 3.8125 10.3304 0.999999 6.85714 0.999999C6.40179 0.999999 5.94643 1.05357 5.51786 1.14286C4.9375 0.696428 4.21429 0.428571 3.42857 0.428571C1.53571 0.428571 0 1.96428 0 3.85714C0 4.64286 0.267857 5.36607 0.714286 5.94643C0.625 6.375 0.571429 6.83036 0.571429 7.28571C0.571429 10.7589 3.38393 13.5714 6.85714 13.5714C7.3125 13.5714 7.76786 13.5179 8.19643 13.4286C8.77679 13.875 9.5 14.1429 10.2857 14.1429C12.1786 14.1429 13.7143 12.6071 13.7143 10.7143Z" fill="white"/>
</svg>

<svg width="14" height="15" fill="none" xmlns="http://www.w3.org/2000/svg"><path d="M10.473 8.777c0 1.812-1.75 2.652-3.428 2.652-2.01 0-3.688-.893-3.688-1.992 0-.49.277-.937.902-.937.955 0 1.045 1.375 2.696 1.375.786 0 1.295-.348 1.295-.804 0-.571-.491-.66-1.286-.857l-1.303-.321c-1.304-.313-2.304-.848-2.304-2.348 0-1.813 1.795-2.482 3.34-2.482 1.687 0 3.392.67 3.392 1.696 0 .518-.348.973-.928.973-.866 0-.893-1.027-2.295-1.027-.786 0-1.286.215-1.286.688 0 .518.51.634 1.188.795l.928.214c1.268.285 2.777.821 2.777 2.375zm3.241 1.937c0-.785-.268-1.509-.714-2.089a6.284 6.284 0 00-7.482-7.482 3.415 3.415 0 00-2.09-.714A3.43 3.43 0 000 3.857c0 .786.268 1.51.714 2.09a6.284 6.284 0 007.482 7.482c.58.446 1.304.714 2.09.714a3.43 3.43 0 003.428-3.429z" fill="#fff"/></svg>
